src/Icon/svgs/bell-off.svg

<svg xmlns="http://www.w3.org/2000/svg" width="24" height="24" viewBox="0 0 24 24">
  <path fill="#1B1C1D" fill-rule="evenodd" d="M4.50000114,18.9999989 L3.99999976,18.9999989 L3.99999976,16.9999989 L5,16.5 L5,10.9999995 C5,7.64888095 7.35481802,4.84775967 10.5,4.16108966 L10.5,3.5 C10.5,2.67157288 11.1715729,2 12,2 C12.8284271,2 13.5,2.67157288 13.5,3.5 L13.5,4.1610899 C14.9503626,4.4777397 16.2326557,5.24402369 17.1934687,6.30653128 L19.5,4 L21,5.5 L18.3813661,8.11863394 C18.7787716,8.99738607 18.9999989,9.97285757 18.9999989,10.9999995 L18.9999989,16.5 L19.9999988,16.9999989 L19.9999988,18.9999989 L7.50000114,18.9999989 L4.5,22 L3,20.5 L4.50000114,18.9999989 Z M9.50000114,16.9999989 L16.9999989,16.9999989 L16.9999989,10.9999995 C16.9999989,10.5419814 16.9384145,10.0983472 16.8230744,9.67692558 L9.50000114,16.9999989 Z M7,16.5 L15.776738,7.72326198 C14.8600038,6.66755237 13.5079592,6 11.9999995,6 C9.23857601,6 7,8.23857601 7,10.9999995 L7,16.5 Z M10,20 L14,20 C14,21.1045695 13.1045695,22 12,22 C10.8954305,22 10,21.1045695 10,20 Z"/>
</svg>

<svg xmlns="http://www.w3.org/2000/svg" width="24" height="24"  xmlns:v="https://vecta.io/nano"><path fill="#1b1c1d" fill-rule="evenodd" d="M4.5 19H4v-2l1-.5V11c0-3.351 2.355-6.152 5.5-6.839V3.5a1.5 1.5 0 1 1 3 0v.661c1.45.317 2.733 1.083 3.693 2.145L19.5 4 21 5.5l-2.619 2.619C18.779 8.997 19 9.973 19 11v5.5l1 .5v2H7.5l-3 3L3 20.5 4.5 19zm5-2H17v-6c0-.458-.062-.902-.177-1.323L9.5 17zM7 16.5l8.777-8.777A4.99 4.99 0 0 0 12 6a5 5 0 0 0-5 5v5.5zm3 3.5h4a2 2 0 1 1-4 0z"/></svg>
